X: 1
T: The Kerfunten Jig
R: jig
M: 6/8
K: G
~B3 BAG|dBd efg|dBd edB|~A3 DFA|~B3 BAG|dBd efg|dBd edB|1 ~A3 G2A:|2 AGF GBd||
~g3 gab|~e3 edB|~g3 gab|bag ~a3|~g3 gab|~e3 efg|dBd edB|1 AGF GBd:|2 AGF G2c||
dBG cGE|DBD ~G3|~B3 dBG|dcB ABc|dBG cGE|DBD ~G3|~B3 dcA|1 AGF ~G3:|2 AGF G2d||
BGg ecA|~f3 g2d|ege dBG|dcB ABc|dBg ecA|~f3 g2d|e/f/ge dBA|AGF GBc|
dBG ecA|~f3 g2g|e/f/ge dBG|dcB ABc|dBG cGE|DBD ~G3|~B3 dcA|AGF ~G3||
